X:173
T: ALS DIE WUNDERSCHOENE ANNA
N: K2349
O: Europa, Mitteleuropa, Deutschland, Kassel
R: Kinder - Lied, Reigen, Tanz - Spiel, Sage, Ballade
M: 2/4
L: 1/8
K: Eb
B,E | GBBB | AGFE | BFFF | F2z
e | BAGF | E2EE | c2cc | e2d
c | BAGF | E2EG | B2B2 | E2

